X:51
T: WER NIEMALS EINEN RAUSCH GEHABT
N: F0141
O: Europa, Mitteleuropa, Deutschland
R: Trink - Lied
M: 2/4
L: 1/16
K: F
FA | c=BcdcBcd | c2A2F2
A2 | G2B2E2G2 | F2A2c2
A2 | G2B2E2G2 | F6
FA | c=BcdcBcd | c2A2F2
A2 | G2B2E2G2 | F2A2c2
A2 | G2B2E2G2 | F6
A2 | G2G2A2A2 | B2B2A2
A2 | G2G2A2A2 | B2B2A2
A2 | G2G2A2A2 | B4z4 | A4z4 | G6
FA | c=BcdcBcd | c2A2F2
A2 | G2B2E2G2 | F2A2c2
A2 | G2B2E2G2 | F6
FA | c=BcdcBcd | c2A2F2
A2 | G2B2E2G2 | F2A2c2
A2 | G2B2E2G2 | F6

@@@ Tune index: 5482
